Quickit/src/img/zone--mob.svg

<svg width="295" height="118" viewBox="0 0 295 118" fill="none" preserveAspectRatio="none" xmlns="http://www.w3.org/2000/svg">
<path opacity="0.07" d="M285.895 56.9293L288.717 57.2245C289.38 57.2939 290.047 57.1254 290.597 56.749C292.466 55.4724 295 56.8102 295 59.0728V115C295 116.657 293.657 118 292 118H3C1.34314 118 0 116.657 0 115V5.23636C0 3.41288 1.9487 2.25162 3.55246 3.11941C4.38315 3.56889 5.39993 3.491 6.15247 2.92026L7.95282 1.55481C9.13232 0.660243 10.788 0.75978 11.8519 1.78921L14.4005 4.25545C14.8484 4.68884 15.4201 4.97198 16.0363 5.06555L19.8789 5.64907C20.1876 5.69595 20.5017 5.69435 20.81 5.64431L24.7963 4.99722C25.1045 4.94718 25.4187 4.94558 25.7274 4.99246L29.7737 5.60692C30.2618 5.68104 30.7607 5.63355 31.2261 5.46866L34.7366 4.22477C35.4057 3.98767 36.1373 3.99555 36.8012 4.24701L40.6896 5.71982L44.6178 7.36355C45.3587 7.67358 46.193 7.67358 46.9339 7.36355L50.8621 5.71982L55.5019 4.02099C55.7976 3.91271 56.0745 3.75854 56.3222 3.56413L57.7963 2.40758C59.346 1.19173 61.627 1.77386 62.4045 3.58362L65.525 10.847C65.8004 11.488 66.2907 12.013 66.9114 12.3316L70.8204 14.3383C71.0767 14.4698 71.3127 14.6377 71.5212 14.8366L75.8029 18.9215C76.1256 19.2295 76.513 19.4615 76.9367 19.6008L79.4713 20.4342C80.5388 20.7852 81.7129 20.5102 82.5135 19.7217L84.6168 17.6501C85.6783 16.6046 87.3462 16.4966 88.5337 17.3963L90.6996 19.0374C91.1457 19.3754 91.4884 19.8315 91.6889 20.3541L95.2436 29.6208C95.8889 31.303 98.0708 31.7324 99.3054 30.42C100.52 29.1287 102.662 29.52 103.342 31.1572L106.509 38.7824C106.707 39.2578 107.023 39.6743 107.428 39.992L109.281 41.4463C110.675 42.5399 112.711 42.1764 113.64 40.668C114.934 38.5682 118.075 38.8711 118.944 41.1794L119.929 43.7976C120.802 46.1164 123.958 46.4215 125.258 44.3127C126.242 42.7176 128.436 42.4146 129.815 43.6833L131.853 45.5578C131.998 45.6918 132.157 45.8111 132.326 45.9139L137.328 48.9518L140.059 50.4062C141.25 51.0402 142.718 50.8014 143.646 49.8227L145.652 47.7075C146.704 46.5984 148.422 46.4576 149.64 47.3807L152.086 49.2337C152.306 49.3997 152.546 49.5348 152.802 49.6352L156.407 51.0494C157.112 51.3256 157.894 51.3256 158.598 51.0494L161.084 50.0744C162.023 49.7058 163.085 49.8344 163.91 50.4165L165.85 51.7869C166.933 52.5515 168.39 52.5148 169.433 51.6965L172.931 48.9518L177.929 45.9159C178.1 45.8118 178.261 45.6907 178.408 45.5545L181.337 42.8459C182.29 41.9653 183.7 41.7965 184.834 42.4275L187.86 44.1127C188.079 44.2345 188.282 44.3832 188.463 44.5554L193.106 48.9518L196.968 52.0829C197.735 52.7043 198.758 52.9091 199.704 52.6306L203.345 51.5593C203.527 51.506 203.702 51.4357 203.87 51.3494L207.163 49.6568C208.024 49.2143 209.045 49.2143 209.906 49.6568L212.954 51.2234C213.282 51.3925 213.64 51.4992 214.007 51.5384L216.881 51.8445C218.088 51.9731 219.255 51.3608 219.835 50.2935L221.162 47.8498C222.221 45.9015 224.954 45.735 226.241 47.5405L228.152 50.2206C228.715 51.0103 229.625 51.4792 230.594 51.4792H233.246C233.609 51.4792 233.97 51.413 234.31 51.2838L238.624 49.6461C238.908 49.5386 239.173 49.3887 239.411 49.2017L243.751 45.7967C244.007 45.5958 244.294 45.4379 244.601 45.3292L247.869 44.1712C248.821 43.834 249.878 43.998 250.683 44.6076L252.499 45.9833C253.57 46.7949 255.051 46.7949 256.122 45.9833L259.227 43.631L261.505 41.8994C263.086 40.6978 265.377 41.336 266.109 43.182L269.278 51.1719C269.359 51.3761 269.462 51.5708 269.585 51.7526L274.2 58.5412C274.603 59.1342 275.205 59.5633 275.898 59.7505L278.259 60.3895C279.19 60.6413 280.185 60.4305 280.933 59.823L283.692 57.5837C284.311 57.0819 285.103 56.8465 285.895 56.9293Z" fill="#F12052"/>
</svg>

<svg xmlns="http://www.w3.org/2000/svg" width="295" height="118" fill="none" preserveAspectRatio="none" xmlns:v="https://vecta.io/nano"><path opacity=".07" d="M285.895 56.929l2.822.295a2.81 2.81 0 0 0 1.88-.475c1.869-1.277 4.403.061 4.403 2.324V115a3 3 0 0 1-3 3H3a3 3 0 0 1-3-3V5.236a2.41 2.41 0 0 1 3.552-2.117c.831.449 1.847.372 2.6-.199l1.8-1.365a3 3 0 0 1 3.899.234l2.549 2.466a3 3 0 0 0 1.636.81l3.843.584a3 3 0 0 0 .931-.005l3.986-.647a3 3 0 0 1 .931-.005l4.046.614a3 3 0 0 0 1.452-.138l3.511-1.244a3 3 0 0 1 2.065.022L40.69 5.72l3.928 1.644a3 3 0 0 0 2.316 0l3.928-1.644 4.64-1.699a3 3 0 0 0 .82-.457l1.474-1.157a3 3 0 0 1 4.608 1.176l3.121 7.263a3 3 0 0 0 1.386 1.485l3.909 2.007a3 3 0 0 1 .701.498l4.282 4.085a3 3 0 0 0 1.134.679l2.535.833a3 3 0 0 0 3.042-.713l2.103-2.072a3 3 0 0 1 3.917-.254l2.166 1.641a3 3 0 0 1 .989 1.317l3.555 9.267c.645 1.682 2.827 2.112 4.062.799 1.215-1.291 3.357-.9 4.037.737l3.167 7.625c.198.475.514.892.919 1.21l1.853 1.454a2.97 2.97 0 0 0 4.359-.778c1.294-2.1 4.435-1.797 5.304.511l.985 2.618c.873 2.319 4.029 2.624 5.329.515.984-1.595 3.178-1.898 4.557-.629l2.038 1.874c.145.134.304.253.473.356l5.002 3.038 2.731 1.454a3 3 0 0 0 3.587-.584l2.006-2.115a3 3 0 0 1 3.988-.327l2.446 1.853c.22.166.46.301.716.401l3.605 1.414a3 3 0 0 0 2.191 0l2.486-.975a3 3 0 0 1 2.826.342l1.94 1.37a3 3 0 0 0 3.583-.09l3.498-2.745 4.998-3.036a3 3 0 0 0 .479-.361l2.929-2.709a3 3 0 0 1 3.497-.418l3.026 1.685c.219.122.422.271.603.443l4.643 4.396 3.862 3.131a3 3 0 0 0 2.736.548l3.641-1.071a2.98 2.98 0 0 0 .525-.21l3.293-1.693a3 3 0 0 1 2.743 0l3.048 1.567c.328.169.686.276 1.053.315l2.874.306a3 3 0 0 0 2.954-1.551l1.327-2.444c1.059-1.948 3.792-2.115 5.079-.309l1.911 2.68a3 3 0 0 0 2.442 1.259h2.652c.363 0 .724-.066 1.064-.195l4.314-1.638a2.98 2.98 0 0 0 .787-.444l4.34-3.405c.256-.201.543-.359.85-.468l3.268-1.158a3 3 0 0 1 2.814.436l1.816 1.376a3 3 0 0 0 3.623 0l3.105-2.352 2.278-1.732a3 3 0 0 1 4.604 1.283l3.169 7.99a3.03 3.03 0 0 0 .307.581l4.615 6.789a3 3 0 0 0 1.698 1.209l2.361.639a3 3 0 0 0 2.674-.566l2.759-2.239a3 3 0 0 1 2.203-.654z" fill="#f12052"/></svg>
